docs/img/switch.svg

<svg width="146" height="146" viewBox="0 0 146 146" fill="none" xmlns="http://www.w3.org/2000/svg">
<path fill-rule="evenodd" clip-rule="evenodd" d="M107.973 108.325C88.6716 127.626 57.2946 127.626 37.993 108.325C18.6914 89.023 18.6914 57.646 37.993 38.3444C57.2946 19.0428 88.6716 19.0428 107.973 38.3444C127.275 57.646 127.275 89.023 107.973 108.325Z" fill="#20B1FE"/>
<path fill-rule="evenodd" clip-rule="evenodd" d="M39.1143 39.4655C20.4851 58.0947 20.4861 88.5743 39.1143 107.202C57.7436 125.832 88.2231 125.833 106.852 107.204C125.481 88.5753 125.481 58.0947 106.851 39.4655C88.2231 20.8373 57.7425 20.8373 39.1143 39.4655ZM109.106 109.457C89.2384 129.325 56.7283 129.326 36.8596 109.457C16.9919 89.5896 16.9919 57.0784 36.8596 37.2107C56.7272 17.3431 89.2384 17.3431 109.106 37.2107C128.975 57.0794 128.974 89.5896 109.106 109.457Z" fill="#1E90FD"/>
<path fill-rule="evenodd" clip-rule="evenodd" d="M103.416 103.862C86.5936 120.685 59.2779 120.685 42.4551 103.862C25.6335 87.0402 25.6335 59.7244 42.4562 42.9017C59.2779 26.0801 86.5947 26.079 103.416 42.9007C120.239 59.7234 120.238 87.0402 103.416 103.862Z" fill="white"/>
<mask id="mask0_0_582" style="mask-type:alpha" maskUnits="userSpaceOnUse" x="0" y="1" width="146" height="145">
<path fill-rule="evenodd" clip-rule="evenodd" d="M72.9839 145.582L145.231 73.334L72.9839 1.08644L0.736328 73.334L72.9839 145.582Z" fill="white"/>
</mask>
<g mask="url(#mask0_0_582)">
<path fill-rule="evenodd" clip-rule="evenodd" d="M47.9218 50.5395L50.1765 48.2847L46.2215 44.3297L43.9668 46.5845L47.9218 50.5395Z" fill="#1783FB"/>
<path fill-rule="evenodd" clip-rule="evenodd" d="M99.6269 102.245L101.882 99.9903L97.9266 96.0353L95.6719 98.29L99.6269 102.245Z" fill="#1783FB"/>
<path fill-rule="evenodd" clip-rule="evenodd" d="M71.2812 37.9902V33.8321L74.4702 33.8331L74.4713 37.9902H71.2812Z" fill="#1783FB"/>
<path fill-rule="evenodd" clip-rule="evenodd" d="M71.4101 112.707V108.549L74.5981 108.549V112.707L71.4101 112.707Z" fill="#1783FB"/>
<path fill-rule="evenodd" clip-rule="evenodd" d="M98.035 50.5267L101.989 46.5728L99.7342 44.318L95.7803 48.272L98.035 50.5267Z" fill="#1783FB"/>
<path fill-rule="evenodd" clip-rule="evenodd" d="M46.2215 102.341L50.1765 98.3857L47.9218 96.1309L43.9668 100.086L46.2215 102.341Z" fill="#1783FB"/>
<path fill-rule="evenodd" clip-rule="evenodd" d="M112.295 74.8899L108.138 74.8888L108.139 71.7019L112.295 71.6998L112.295 74.8899Z" fill="#1783FB"/>
<path fill-rule="evenodd" clip-rule="evenodd" d="M33.4202 71.6667H37.5783L37.5773 74.8557L33.4202 74.8568V71.6667Z" fill="#1783FB"/>
<path fill-rule="evenodd" clip-rule="evenodd" d="M74.4822 44.3998C74.8726 44.7902 75.1324 45.332 75.1314 45.8991L75.1198 69.0494C73.7741 68.3645 72.1812 68.3771 70.8229 69.0494L70.8113 45.8991C70.8123 44.766 71.8266 43.7517 72.9598 43.7506C73.5511 43.7506 74.0929 44.0105 74.4822 44.3998Z" fill="#168DEF"/>
<path fill-rule="evenodd" clip-rule="evenodd" d="M87.9993 88.3503C87.0903 89.2593 85.7457 89.2593 84.8366 88.3503L74.4004 77.9141C75.1201 77.691 75.7924 77.3007 76.3711 76.722C76.9024 76.1907 77.2812 75.5783 77.5053 74.9291L87.9993 85.4232C88.8968 86.085 88.9084 87.4412 87.9993 88.3503Z" fill="#0C64FD"/>
<path fill-rule="evenodd" clip-rule="evenodd" d="M68.4271 71.8703C68.1199 72.8151 68.1209 73.8536 68.4271 74.7995L43.5187 74.7995C42.6212 74.7984 42.0551 74.2324 42.0541 73.3349C42.0541 72.8867 42.1961 72.509 42.4444 72.2606C42.6927 72.0123 43.0705 71.8703 43.5187 71.8703L68.4271 71.8703Z" fill="#20B1FE"/>
<path fill-rule="evenodd" clip-rule="evenodd" d="M69.5959 69.9466C71.4666 68.0759 74.5 68.0748 76.3717 69.9466C78.2424 71.8173 78.2414 74.8506 76.3707 76.7213C74.5 78.592 71.4666 78.5931 69.5959 76.7224C67.7241 74.8506 67.7252 71.8173 69.5959 69.9466Z" fill="white"/>
<path fill-rule="evenodd" clip-rule="evenodd" d="M70.7298 71.0802C69.4903 72.3196 69.4903 74.3503 70.7298 75.5897C71.9681 76.8281 73.9988 76.8281 75.2382 75.5887C76.4776 74.3492 76.4776 72.3186 75.2392 71.0802C73.9998 69.8408 71.9692 69.8408 70.7298 71.0802ZM77.5045 77.855C75.0257 80.3338 70.9539 80.3464 68.4634 77.856C65.972 75.3645 65.972 71.3054 68.4634 68.8139C70.9539 66.3235 75.0141 66.3224 77.5056 68.8139C79.996 71.3043 79.9834 75.3761 77.5045 77.855Z" fill="#1783FB"/>
</g>
</svg>

<svg width="146" height="146" viewBox="0 0 146 146" fill="none" xmlns="http://www.w3.org/2000/svg"><path fill-rule="evenodd" clip-rule="evenodd" d="M107.973 108.325c-19.301 19.301-50.678 19.301-69.98 0-19.302-19.302-19.302-50.679 0-69.98 19.302-19.302 50.679-19.302 69.98 0 19.302 19.301 19.302 50.678 0 69.98z" fill="#20B1FE"/><path fill-rule="evenodd" clip-rule="evenodd" d="M39.114 39.465c-18.629 18.63-18.628 49.11 0 67.737 18.63 18.63 49.11 18.631 67.738.002 18.629-18.629 18.629-49.11-.001-67.738-18.628-18.629-49.108-18.629-67.737 0zm69.992 69.992c-19.868 19.868-52.378 19.869-72.246 0-19.868-19.867-19.868-52.379 0-72.246 19.867-19.868 52.378-19.868 72.246 0 19.869 19.868 19.868 52.379 0 72.246z" fill="#1E90FD"/><path fill-rule="evenodd" clip-rule="evenodd" d="M103.416 103.862c-16.822 16.823-44.138 16.823-60.96 0-16.823-16.822-16.823-44.138 0-60.96 16.822-16.822 44.139-16.823 60.96-.001 16.823 16.822 16.822 44.14 0 60.961z" fill="#fff"/><mask id="mask0_0_582" style="mask-type:alpha" maskUnits="userSpaceOnUse" x="0" y="1" width="146" height="145"><path fill-rule="evenodd" clip-rule="evenodd" d="M72.984 145.582l72.247-72.248L72.984 1.086.736 73.334l72.248 72.248z" fill="#fff"/></mask><g mask="url(#mask0_0_582)" fill-rule="evenodd" clip-rule="evenodd"><path d="M47.922 50.54l2.255-2.255-3.956-3.955-2.254 2.255 3.955 3.954zm51.705 51.705l2.255-2.255-3.955-3.955-2.255 2.255 3.955 3.955zM71.281 37.99v-4.158l3.19.001v4.157h-3.19zm.129 74.717v-4.158h3.188v4.158H71.41zm26.625-62.18l3.954-3.954-2.255-2.255-3.954 3.954 2.255 2.255zm-51.814 51.814l3.956-3.955-2.255-2.255-3.955 3.955 2.255 2.255zm66.074-27.451l-4.157-.001.001-3.187 4.156-.002v3.19zM33.42 71.667h4.158v3.189H33.42v-3.19z" fill="#1783FB"/><path d="M74.482 44.4c.39.39.65.932.65 1.5l-.012 23.15a4.787 4.787 0 00-4.297 0L70.81 45.9c.001-1.134 1.016-2.148 2.149-2.15.591 0 1.133.26 1.522.65z" fill="#168DEF"/><path d="M88 88.35c-.91.91-2.254.91-3.163 0L74.4 77.914a4.756 4.756 0 001.971-1.192 4.708 4.708 0 001.134-1.793L88 85.423c.898.662.91 2.018 0 2.927z" fill="#0C64FD"/><path d="M68.427 71.87a4.778 4.778 0 000 2.93H43.52c-.898-.002-1.464-.568-1.465-1.465 0-.448.142-.826.39-1.074.249-.249.627-.39 1.075-.39h24.908z" fill="#20B1FE"/><path d="M69.596 69.947a4.79 4.79 0 116.776 6.775 4.79 4.79 0 01-6.776-6.775z" fill="#fff"/><path d="M70.73 71.08a3.2 3.2 0 000 4.51 3.199 3.199 0 004.508-.001 3.2 3.2 0 00.001-4.509 3.2 3.2 0 00-4.51 0zm6.774 6.775c-2.478 2.479-6.55 2.491-9.04.001a6.404 6.404 0 010-9.042c2.49-2.49 6.55-2.492 9.042 0 2.49 2.49 2.477 6.562-.002 9.041z" fill="#1783FB"/></g></svg>
